X: 1
T: Vals efter J\"onsagubben
O: H\"alsingland
R: waltz
Z: 2021 John Chambers <jc:trillian.mit.edu>
M: 3/4
L: 1/8
K: F
|:\
"F"c2 F2 A2 | c4 d2 | "C7"B2 BA Bc | "F"A2 c2 f2 ||\
"F"a2 c2 f2 | a4 a2 | "C7"ag gb eg | "F"f6 :|
|:\
"F"c2 aa aa | a2 f2 c2 | "C7"c2 bb bb | b2 g2 e2 ||\
"F"c2 aa aa | a2 f2 c2 | "C7"cd ef ge | "F"f6 :|
|:\
"Dm"a3 g bg | a4 f2 | "A7"e^c A2 ce | "Dm"d^c de fg ||\
"Dm"a3 g bg | a4 f2 | "A7"e^c A2 ce | "Dm"d6 :|
